X:2
L:1/8
K:C
c2 c2|c2 d2|d2 d2|d2 d2|d2 d2|d2 d2|d2 d2|c2 d2|d2 d2|d2 d2|d2 d2|d4|
<end>
<start>


*****************************


6500 0 2.423392 

<start>
